!!!COM: Paul Hindemith
!!!OTL: [T663_Hin-w99p106m171-177]
**kern	**dynam	**kern	**dynam	**kern	**dynam	**kern	**dynam	**kern	**dynam	**kern	**dynam	**kern	**dynam	**kern	**dynam
*grp:A	*	*grp:A	*	*grp:A	*	*grp:A	*	*grp:A	*	*grp:A	*	*grp:B	*	*grp:B	*
*part8	*part8	*part7	*part7	*part6	*part6	*part5	*part5	*part4	*part4	*part3	*	*part2	*	*part1	*part1
*staff8	*	*staff7	*	*staff6	*	*staff5	*	*staff4	*	*staff3	*	*staff2	*	*staff1	*
*I"Contrabass	*	*I"Violoncello	*	*I"Viola II	*	*I"Viola I	*	*I"Violin	*	*I"Horn in F	*	*I"Bassoon	*	*I"Clarinet in Bb	*
*I'Cb.	*	*I'Vc.	*	*I'Vla.	*	*I'Vla.	*	*I'Vln.	*	*I'Hn.	*	*	*	*I'Cl.	*
*ICstr	*	*ICstr	*	*ICstr	*	*ICstr	*	*ICstr	*	*ICbras	*	*ICww	*	*ICww	*
*Icbass	*	*Icello	*	*Iviola	*	*Iviola	*	*Ivioln	*	*Icor	*	*Ifagot	*	*Iclars	*
*clefF4	*	*clefG2	*	*clefC3	*	*clefG2	*	*clefG2	*	*clefF4	*	*clefF4	*	*clefG2	*
*ITrd7c12	*	*	*	*	*	*	*	*	*	*ITrd-3c-5	*	*	*	*ITrd1c2	*
*k[]	*	*k[]	*	*k[]	*	*k[]	*	*k[]	*	*k[b-]	*	*k[]	*	*k[b-e-]	*
*	*	*	*	*	*	*	*	*	*	*	*	*	*	*	*
*M3/8	*	*M3/8	*	*M3/8	*	*M3/8	*	*M3/8	*	*M3/8	*	*M3/8	*	*M3/8	*
=1	=1	=1	=1	=1	=1	=1	=1	=1	=1	=1	=1	=1	=1	=1	=1
!LO:TX:a:t=[pizz.]	!LO:DY:ed=brack	!	!LO:DY:ed=brack	!LO:TX:a:t=[pizz.]	!	!LO:TX:a:t=[pizz.]	!	!LO:TX:a:t=[pizz.]	!	!	!LO:DY:ed=brack	!	!LO:DY:ed=brack	!LO:TX:t=[[eighth]=184]	!LO:DY:ed=brack
8ryy	4ryy	4ryy	4ryy	8ryy	.	8ryy	.	8ryy	.	8ryy	4ryy	8EnL	4ryy	8eeXL	4ryy
!	!	!	!	!	!LO:DY:ed=brack	!	!LO:DY:ed=brack	!	!LO:DY:ed=brack	!	!	!	!	!	!
8ryy	.	.	.	8ryy	4ryy	8ryy	4ryy	8ryy	4ryy	8ryy	.	8BBn)j	.	8bX)j	.
*	*	*clefC4	*	*	*	*	*	*	*	*	*	*	*	*	*
8ryy	.	8ryy	.	8ryy	.	8ryy	.	8ryy	.	8ryy	.	(16AAL	.	(16aL	.
.	.	.	.	.	.	.	.	.	.	.	.	16C'JJ)	.	16cc'JJ)	.
=2	=2	=2	=2	=2	=2	=2	=2	=2	=2	=2	=2	=2	=2	=2	=2
8ryy	.	8ryy	.	8ryy	.	8ryy	.	8ryy	.	8ryy	.	8AA-XL	.	8a-XL	.
8ryy	.	8ryy	.	8ryy	.	8ryy	.	8ryy	.	8ryy	.	(16AAnL	.	(16aL	.
.	.	.	.	.	.	.	.	.	.	.	.	16C'J)	.	16cc'J)	.
8ryy	.	8ryy	.	8ryy	.	8ryy	.	8ryy	.	8ryy	.	8AA-XJ	.	8a-XJ	.
=3	=3	=3	=3	=3	=3	=3	=3	=3	=3	=3	=3	=3	=3	=3	=3
8ryy	.	8ryy	.	8ryy	.	8ryy	.	8ryy	.	8ryy	.	(16AAnLL	.	(16aLL	.
.	.	.	.	.	.	.	.	.	.	.	.	16C'J)	.	16cc'J)	.
8ryy	.	4ryy	.	8ryy	.	8ryy	.	8ryy	.	8ryy	.	8AA-X	.	8a-X	.
8ryy	.	.	.	8ryy	.	8ryy	.	8ryy	.	8ryy	.	(16AAnL	.	(16aL	.
.	.	.	.	.	.	.	.	.	.	.	.	16C'JJ)	.	16cc'JJ)	.
*	*	*clefF4	*	*	*	*clefC3	*	*	*	*	*	*	*	*	*
=4||	=4||	=4||	=4||	=4||	=4||	=4||	=4||	=4||	=4||	=4||	=4||	=4||	=4||	=4||	=4||
*M2/4	*	*M2/4	*	*M2/4	*	*M2/4	*	*M2/4	*	*M2/4	*	*M2/4	*	*M2/4	*
!LO:TX:a:t=arco	!	!	!	!LO:TX:a:t=arco	!	!LO:TX:a:t=arco	!	!LO:TX:a:t=arco	!	!	!	!	!	!LO:TX:a:B:t=Polka ([quarter] etwa 92)	!
8ryy	4ryy	8ryy	4ryy	8ryy	.	8ryy	.	8ryy	.	2ryy	.	8AA-X	.	8a-X	.
8ryy	.	8ryy	.	4ryy	4ryy	4ryy	4ryy	4.ryy	4ryy	.	.	8r	.	8r	.
.	.	.	.	.	.	.	.	.	.	.	.	.	.	(16qqa-/LL	4ryy
.	.	.	.	.	.	.	.	.	.	.	.	.	.	16qqdd-X/JJ	.
8ryy	.	8ryy	.	.	.	.	.	.	.	.	.	4r	.	8ee-)	.
.	.	.	.	.	.	8ryy	4ryy	.	.	.	.	.	.	.	.
8ryy	.	8ryy	.	8ryy	4ryy	8ryy	.	.	.	.	.	.	.	8r	.
=5	=5	=5	=5	=5	=5	=5	=5	=5	=5	=5	=5	=5	=5	=5	=5
8ryy	.	8ryy	.	8ryy	.	8ryy	.	8ryy	.	2ryy	.	2r	.	4.r	.
.	.	.	.	.	.	8ryy	.	.	.	.	.	.	.	.	.
8ryy	.	8ryy	.	16ryy	.	16ryy	.	8ryy	.	.	.	.	.	.	.
.	.	.	.	16ryy	.	16ryy	.	.	.	.	.	.	.	.	.
8ryy	.	8ryy	.	8.ryy	4ryy	4ryy	4ryy	4ryy	4ryy	.	.	.	.	.	.
.	.	.	.	.	.	.	.	.	.	.	.	.	.	(16qqa-X/LL	.
.	.	.	.	.	.	.	.	.	.	.	.	.	.	16qqdd-X/JJ	.
8ryy	.	8ryy	.	.	.	.	.	.	.	.	.	.	.	8ee-)	.
.	.	.	.	16ryy	4ryy	.	.	.	.	.	.	.	.	.	.
=6	=6	=6	=6	=6	=6	=6	=6	=6	=6	=6	=6	=6	=6	=6	=6
8ryy	.	8ryy	.	16.ryy	.	16.ryy	.	16.ryy	.	2ryy	.	2r	.	4r	.
.	.	.	.	32ryy	.	32ryy	.	32ryy	.	.	.	.	.	.	.
8ryy	.	8ryy	.	4.ryy	4ryy	4ryy	.	4.ryy	4ryy	.	.	.	.	.	.
.	.	.	.	.	.	.	.	.	.	.	.	.	.	(16qqa-X/LL	.
.	.	.	.	.	.	.	.	.	.	.	.	.	.	16qqdd-X/JJ	.
8ryy	.	8ryy	.	.	.	.	.	.	.	.	.	.	.	8ee-)	.
8ryy	.	8ryy	.	.	.	8ryy	4ryy	.	.	.	.	.	.	8r	.
=7	=7	=7	=7	=7	=7	=7	=7	=7	=7	=7	=7	=7	=7	=7	=7
8ryy	.	8ryy	.	4.ryy	4ryy	8ryy	4ryy	4.ryy	4ryy	2ryy	.	2r	.	8r	.
.	.	.	.	.	.	.	.	.	.	.	.	.	.	(16qqa-X/LL	.
.	.	.	.	.	.	.	.	.	.	.	.	.	.	16qqdd-X/JJ	.
8ryy	.	8ryy	.	.	.	16ryy	.	.	.	.	.	.	.	8ee-)	.
.	.	.	.	.	.	16ryy	.	.	.	.	.	.	.	.	.
8ryy	.	8ryy	.	.	.	8.ryy	4ryy	.	.	.	.	.	.	4r	.
8ryy	4ryy	8ryy	4ryy	8ryy	4ryy	.	.	8ryy	4ryy	.	.	.	.	.	.
.	.	.	.	.	.	16ryy	4ryy	.	.	.	.	.	.	.	.
=	=	=	=	=	=	=	=	=	=	=	=	=	=	=	=
*-	*-	*-	*-	*-	*-	*-	*-	*-	*-	*-	*-	*-	*-	*-	*-
!!!system-decoration: [(s1,s2,s3)][(s4[(s5,s6)]s7,s8)]
!!!Xfilter: slurcheck
!!!RDF**kern: i = marked note, color="hotpink", text="extra("
!!!RDF**kern: j = marked note, color="magenta", text="extra)"
